X: 525
T: Vals efter Jönsagubben
S: efter Olof Jonsson, Simeå
R: Vals
O: Hälsingland, Simeå
Z: Håkan Lidén, 2008-09-27
M:3/4
L:1/4
K:F
c F A | c2 d | B B/A/ B/c/ | A c f | a c f | a2 a |
a/g/ g/b/ e/g/ | f2 z :: c a/a/ a/a/ | a f c | c b/b/ b/b/ | b g e |
c a/a/ a/a/ | a f c | c/d/ e/f/ g/e/ | f2 z :: a>g b/g/ | a2 f |
e/^c/ A c/e/ | d/^c/ d/e/ f/g/ | a>g b/g/ | a2 f | e/^c/ A c/e/ | d2 :|]
(:musicend:)

(:music:)
